assets/icon-ruler.svg

<svg
  class="icon icon-accordion icon-ruler"

  focusable="false"
  xmlns="http://www.w3.org/2000/svg"


  viewBox="0 0 20 20"
>
  <path d="M18.9836 5.32852L14.6715 1.01638L1.01638 14.6715L5.32852 18.9836L18.9836 5.32852ZM15.3902 0.297691C14.9933 -0.0992303 14.3497 -0.0992303 13.9528 0.297691L0.297691 13.9528C-0.0992301 14.3497 -0.0992305 14.9932 0.297691 15.3902L4.60983 19.7023C5.00675 20.0992 5.65029 20.0992 6.04721 19.7023L19.7023 6.04721C20.0992 5.65029 20.0992 5.00675 19.7023 4.60983L15.3902 0.297691Z" fill-rule="evenodd"/>
  <path d="M11.7863 2.67056C11.9848 2.4721 12.3065 2.4721 12.505 2.67056L14.4237 4.58927C14.6222 4.78774 14.6222 5.1095 14.4237 5.30796C14.2252 5.50642 13.9035 5.50642 13.705 5.30796L11.7863 3.38925C11.5878 3.19079 11.5878 2.86902 11.7863 2.67056Z"/>
  <path d="M8.93891 5.36331C9.13737 5.16485 9.45914 5.16485 9.6576 5.36331L11.5763 7.28202C11.7748 7.48048 11.7748 7.80225 11.5763 8.00071C11.3779 8.19917 11.0561 8.19917 10.8576 8.00071L8.93891 6.082C8.74045 5.88354 8.74045 5.56177 8.93891 5.36331Z"/>
  <path d="M6.24307 8.20742C6.44153 8.00896 6.76329 8.00896 6.96175 8.20742L8.88047 10.1261C9.07893 10.3246 9.07893 10.6464 8.88047 10.8448C8.68201 11.0433 8.36024 11.0433 8.16178 10.8448L6.24307 8.92611C6.0446 8.72765 6.0446 8.40588 6.24307 8.20742Z"/>
  <path d="M3.37296 10.8776C3.57142 10.6791 3.89319 10.6791 4.09165 10.8776L6.01036 12.7963C6.20882 12.9948 6.20882 13.3165 6.01036 13.515C5.8119 13.7134 5.49013 13.7134 5.29167 13.515L3.37296 11.5963C3.1745 11.3978 3.1745 11.076 3.37296 10.8776Z"/>
</svg>

<svg xmlns="http://www.w3.org/2000/svg" class="icon icon-accordion icon-ruler" viewBox="0 0 20 20"><path fill-rule="evenodd" d="M18.984 5.329 14.67 1.016 1.017 14.672l4.313 4.312zM15.39.298a1.016 1.016 0 0 0-1.437 0L.298 13.953a1.016 1.016 0 0 0 0 1.437l4.312 4.312c.397.397 1.04.397 1.437 0L19.702 6.047a1.016 1.016 0 0 0 0-1.437z"/><path d="M11.786 2.67a.51.51 0 0 1 .719 0l1.919 1.92a.508.508 0 1 1-.719.718l-1.919-1.919a.51.51 0 0 1 0-.718M8.939 5.363a.51.51 0 0 1 .719 0l1.918 1.919a.508.508 0 1 1-.718.719l-1.92-1.919a.51.51 0 0 1 0-.719M6.243 8.207a.51.51 0 0 1 .719 0l1.918 1.92a.508.508 0 0 1-.718.718L6.243 8.926a.51.51 0 0 1 0-.719M3.373 10.878a.51.51 0 0 1 .719 0l1.918 1.918a.508.508 0 0 1-.718.719l-1.919-1.919a.51.51 0 0 1 0-.718"/></svg>
